usr/share/icons/biglinux-icons-material/24/actions/labplot-xy-fourier-filter-curve.svg

<svg xmlns="http://www.w3.org/2000/svg" viewBox="0 0 24 24">
  <defs id="defs3051">
    <style type="text/css" id="current-color-scheme">
      .ColorScheme-Text {
        color:#dedede;
      }
      .ColorScheme-Highlight {
        color:#3daee9;
      }
      </style>
  </defs><g transform="translate(1,1)">
 <path 
     style="fill:currentColor;fill-opacity:1;stroke:none" 
     d="M 3 3 L 3 4 L 3 7 L 4 7 L 4 4 L 7 4 L 7 3 L 4 3 L 3 3 z M 10 3 L 10 6 L 7 6 L 6 6 L 6 13 L 3 13 L 3 14 L 10 14 L 10 19 L 11 19 L 11 14 L 19 14 L 19 13 L 16 13 L 16 6 L 15 6 L 11 6 L 11 3 L 10 3 z M 15 3 L 15 4 L 18 4 L 18 7 L 19 7 L 19 4 L 19 3 L 18 3 L 15 3 z M 7 7 L 10 7 L 10 13 L 7 13 L 7 7 z M 11 7 L 15 7 L 15 13 L 11 13 L 11 7 z M 3 15 L 3 18 L 3 19 L 7 19 L 7 18 L 4 18 L 4 15 L 3 15 z M 18 15 L 18 18 L 15 18 L 15 19 L 19 19 L 19 18 L 19 15 L 18 15 z "
     class="ColorScheme-Text"
     />
 <path 
     style="fill:currentColor;fill-opacity:1;stroke:none" 
     d="M 11,5 C 10.09558,5 9.3630583,5.6034836 8.7695312,6.3652344 8.1760043,7.1269864 7.685626,8.095759 7.28125,9.056641 6.472498,10.978403 6.0136719,12.882813 6.0136719,12.882812 l 0.9726562,0.234376 c 0,0 0.4474039,-1.845591 1.2167969,-3.673829 C 8.587822,8.529241 9.0544716,7.6230136 9.5566406,6.9785156 10.056781,6.3366186 10.556129,6.0065983 10.994141,6.0039062 c 0.4208,0.01378 0.782978,0.1849888 1.15625,0.5429688 0.375823,0.360428 0.739876,0.9081416 1.076171,1.587891 0.643616,1.300928 1.184369,3.072232 1.722657,4.865234 l 1.046875,0 c -0.0052,-0.0174 -0.01041,-0.03338 -0.01563,-0.05078 C 15.41832,11.074493 14.857287,9.175514 14.123047,7.6914062 13.755927,6.9493522 13.345582,6.307366 12.841797,5.8242188 12.338012,5.3410719 11.715369,5.0192827 11.013672,5 l -0.0059,0 z"
     class="ColorScheme-Highlight"
     />
</g></svg>

<svg xmlns="http://www.w3.org/2000/svg" viewBox="0 0 24 24"><path d="M3 3v4h1V4h3V3H3zm7 0v3H6v7H3v1h7v5h1v-5h8v-1h-3V6h-5V3h-1zm5 0v1h3v3h1V3h-4zM7 7h3v6H7V7zm4 0h4v6h-4V7zm-8 8v4h4v-1H4v-3H3zm15 0v3h-3v1h4v-4h-1z" style="fill:currentColor;fill-opacity:1;stroke:none;color:#dedede" transform="translate(1 1)"/><path d="M11 5c-.904 0-1.637.603-2.23 1.365-.594.762-1.084 1.73-1.489 2.692-.809 1.921-1.267 3.826-1.267 3.826l.972.234s.448-1.845 1.217-3.674c.385-.914.851-1.82 1.354-2.464.5-.642 1-.972 1.437-.975.42.014.783.185 1.156.543.376.36.74.908 1.077 1.588.643 1.3 1.184 3.072 1.722 4.865h1.047l-.016-.05c-.562-1.876-1.123-3.774-1.857-5.259-.367-.742-.777-1.384-1.281-1.867-.504-.483-1.127-.805-1.828-.824h-.006z" style="fill:currentColor;fill-opacity:1;stroke:none;color:#3daee9" transform="translate(1 1)"/></svg>
